src/resources/regeneration-icon.svg

<svg fill="none" height="15" viewBox="0 0 14 15" width="14" xmlns="http://www.w3.org/2000/svg"><g fill="#bf925a"><path d="m.291703 7.7917c-.161055 0-.291703-.13073-.291703-.2917 0-3.85995 3.14005-7 7-7 2.78543 0 5.0838 1.66187 6.6464 4.80662.0171.03427.0273.07157.0299.10977.0027.03819-.0022.07654-.0144.11284s-.0314.06984-.0566.0987c-.0251.02887-.0557.05249-.09.06952-.1448.07243-.3197.01293-.3908-.13117-1.0169-2.04523-2.9039-4.48298-6.1245-4.48298-3.53793 0-6.416703 2.87877-6.416703 6.4167 0 .16097-.130621.2917-.291594.2917z"/><path d="m13.7086 5.75h-2.3333c-.161 0-.2917-.13062-.2917-.29171 0-.16097.1307-.29159.2917-.29159h2.0417v-2.01723c0-.16097.1306-.29162.2916-.29162s.2917.13065.2917.29162v2.30882c0 .16106-.1307.29171-.2917.29171zm-6.70833 8.75c-2.78543 0-5.08381-1.6619-6.646449-4.80662-.017077-.03427-.027231-.07157-.029881-.10977-.002649-.0382.002258-.07654.01444-.11284.012183-.0363.031402-.06984.056559-.0987.025156-.02887.055757-.05249.09005-.06952.14525-.07295.319129-.0123.390825.13117 1.016836 2.04528 2.903876 4.48298 6.124456 4.48298 3.53793 0 6.41673-2.8788 6.41673-6.4167 0-.16098.1306-.29171.2916-.29171s.2917.13073.2917.29171c0 3.86-3.1401 7-7.00003 7z"/><path d="m.291703 12.1421c-.161055 0-.291703-.1306-.291703-.2916v-2.3088c0-.16105.130621-.2917.291703-.2917h2.333297c.16097 0 .2917.13062.2917.2917 0 .16098-.13073.2916-.2917.2916h-2.041703v2.0172c.000036.0383-.007482.0763-.022123.1117-.01464.0354-.036117.0675-.063201.0946s-.059243.0486-.094637.0632c-.035394.0147-.073329.0222-.111633.0221z"/></g></svg>

<svg width="14" height="15" viewBox="0 0 14 15" fill="none" xmlns="http://www.w3.org/2000/svg">
<g id="Group">
<path id="Vector" d="M0.291703 7.7917C0.130648 7.7917 0 7.66097 0 7.5C0 3.64005 3.14005 0.5 7 0.5C9.78543 0.5 12.0838 2.16187 13.6464 5.30662C13.6635 5.34089 13.6737 5.37819 13.6763 5.41639C13.679 5.45458 13.6741 5.49293 13.6619 5.52923C13.6497 5.56553 13.6305 5.59907 13.6053 5.62793C13.5802 5.6568 13.5496 5.68042 13.5153 5.69745C13.3705 5.76988 13.1956 5.71038 13.1245 5.56628C12.1076 3.52105 10.2206 1.0833 7 1.0833C3.46207 1.0833 0.583297 3.96207 0.583297 7.5C0.583297 7.66097 0.452676 7.7917 0.291703 7.7917Z" fill="#BF925A"/>
<path id="Vector_2" d="M13.7086 5.75H11.3753C11.2143 5.75 11.0836 5.61938 11.0836 5.45829C11.0836 5.29732 11.2143 5.1667 11.3753 5.1667H13.417V3.14947C13.417 2.9885 13.5476 2.85785 13.7086 2.85785C13.8696 2.85785 14.0003 2.9885 14.0003 3.14947V5.45829C14.0003 5.61935 13.8696 5.75 13.7086 5.75ZM7.00027 14.5C4.21484 14.5 1.91646 12.8381 0.353821 9.69338C0.336744 9.65911 0.32659 9.62181 0.32394 9.58361C0.321291 9.54541 0.326198 9.50707 0.33838 9.47077C0.350563 9.43447 0.369782 9.40093 0.394939 9.37207C0.420095 9.3432 0.450696 9.31958 0.484989 9.30255C0.630239 9.2296 0.804118 9.29025 0.875814 9.43372C1.89265 11.479 3.77969 13.9167 7.00027 13.9167C10.5382 13.9167 13.417 11.0379 13.417 7.5C13.417 7.33902 13.5476 7.20829 13.7086 7.20829C13.8696 7.20829 14.0003 7.33902 14.0003 7.5C14.0003 11.36 10.8602 14.5 7.00027 14.5Z" fill="#BF925A"/>
<path id="Vector_3" d="M0.291703 12.1421C0.130648 12.1421 0 12.0115 0 11.8505V9.5417C0 9.38065 0.130621 9.25 0.291703 9.25H2.625C2.78597 9.25 2.9167 9.38062 2.9167 9.5417C2.9167 9.70268 2.78597 9.8333 2.625 9.8333H0.583297V11.8505C0.583333 11.8888 0.575815 11.9268 0.561174 11.9622C0.546534 11.9976 0.525057 12.0297 0.497973 12.0568C0.470889 12.0839 0.43873 12.1054 0.403336 12.12C0.367942 12.1347 0.330007 12.1422 0.291703 12.1421Z" fill="#BF925A"/>
</g>
</svg>
